!!!!SEGMENT: ss079-JapaneseLoveSong_M.krn
!!!COM: J.S. Zamecnik
!!!OTL: Japanese Love Song
!!!OPR:Sam Fox Moving Picture Music, Volume2
!!!YOY:1913
!!!ONB: National
**kern	**dynam
*clefG2	*
*k[]	*
*C:	*
*M4/4	*
*met(c)	*
=1	=1
!LO:TX:a:B:t=Andante moderato	!
(8GL	p
!LO:TX:b:i:t=espress.	!
8A	.
8c	.
8eJ)	.
(16gLL	.
16a	.
16cc	.
16aJJ	.
16gLL	.
16e	.
16d	.
16cJJ)	.
=2	=2
2e	<
2g	[ > ]]
=3	=3
(8GL	.
8A	.
8c	.
8eJ)	.
(16gLL	.
16a	.
16cc	.
16aJJ	.
16gLL	.
16e	.
16d	.
16cJJ)	.
=4	=4
2e	<
2d	[ > ]]
=5	=5
(8cL	.
8d	.
8e	.
8aJ)	.
(16gLL	.
16a	.
16g	.
16eJJ	.
4g)	.
=6	=6
(8AL	.
8B	.
8c	.
8fJ)	.
(16eLL	.
16d	.
16c	.
16AJJ)	.
4d	.
=7	=7
(8GL	.
8A	.
8c	.
8eJ)	.
(16gLL	.
16a	.
16cc	.
16aJJ	.
16gLL	.
16e	.
16d	.
16cJJ)	.
=8	=8
2e	<
2g	[ > ]]
=9	=9
!LO:TX:b:i:t=poco rall -  -   -   -   -	!
[2cc	.
2cc]	.
=10	=10
2.cc	.
4r	.
!LO:TX:b:i:t=Fine	!
=11||	=11||
!LO:TX:a:t=Poco animato	!
8eeL	mf
(8eeJ	.
16ddLL	.
16ee	.
16dd	.
16ccJJ)	.
(16aLL	.
16cc	.
16a	.
16gJJ	.
16eLL	.
16c	.
16d	.
16eJJ)	.
=12	=12
(4g	.
4a	.
4cc	.
4dd)	.
=13	=13
8eeL	<
(8eeJ	.
16ddLL	.
16ee	.
16dd	.
16ccJJ)	[
!LO:TX:a:i:t=poco meno mosso	!
(8ggL	.
8ee	.
8dd	.
8eeJ)	.
=14	=14
8ccL	>
(8ccJ	.
16bLL	.
16cc	.
16b	.
16gJJ	.
2a)	]
=15	=15
!LO:TX:b:t=Poco animato	!
8eeL	.
(8eeJ	.
16ddLL	.
16ee	.
16dd	.
16ccJJ)	.
(16aLL	.
16cc	.
16a	.
16gJJ	.
16eLL	.
16c	.
16d	.
16eJJ)	.
=16	=16
(4g	.
4a	.
4cc	.
4dd)	.
=17	=17
!LO:TX:b:i:t=cresc.	!
8eeL	.
(8eeJ	.
16ddLL	.
16ee	.
16dd	.
16ccJJ)	.
2gg^	.
=18	=18
8eeL	.
(8eeJ	.
16ddLL	.
16ee	.
16dd	.
16ccJJ)	.
2aa^	.
=19	=19
(8cccL	f
8aa	.
8gg	.
8aaJ)	.
8eeL	.
(8eeJ	.
!LO:TX:b:i:t=dim.	!
16ddLL	.
16ee	.
16dd	.
!LO:TX:b:i:t=rit.	!
16aJJ)	.
=20	=20
[2cc	.
2cc]	.
==	==
*-	*-
!!!ENC: Yukiko Yoden
!!!END: 2022/03/21